!!!COA:	Josquin des Prez
!!!CDT:	~1450-1521/08/27
!!!OTL@@LAT:  Magnificat Tertii toni
!!!OTL2@@LAT: Quia fecit
!!!OTL3@@LAT: Fecit potentiam
!!!OTL4@@LAT: Esurientes
!!!AGN:	Motet
!!!SCT:	NJE 20.2
!!!SCA:	New Josquin Edition 20.2
!!!voices:	4
**kern	**kern	**kern	**kern
*staff4	*staff3	*staff2	*staff1
*Ivox	*Ivox	*Ivox	*Ivox
*I"Bassus	*I"Tenor	*I"Altus	*I"Superius
*I'B	*I'T	*I'A	*I'S
*>[A,B,C,D]	*>[A,B,C,D]	*>[A,B,C,D]	*>[A,B,C,D]
*>A	*>A	*>A	*>A
*clefF4	*clefGv2	*clefGv2	*clefG2
*k[]	*k[]	*k[]	*k[]
*M3/1	*M3/1	*M3/1	*M3/1
*met(O)	*met(O)	*met(O)	*met(O)
=1-	=1-	=1-	=1-
1.E	1.E	0.r	0.r
2D\	2F/	.	.
1E	1G	.	.
=2	=2	=2	=2
1F	1A	0.r	0.r
2E\	2G/	.	.
2C/	1c	.	.
1D	.	.	.
.	2B\	.	.
=3	=3	=3	=3
1.C	1c	1.e	1.e
.	1r	.	.
2F\	.	2d\	2f/
2E\	[1c	1e	1g
2C/	.	.	.
=4	=4	=4	=4
1F	2c\]	1f	1a
.	2d\	.	.
2E\	2e\	2g\	2g/
2A\	2c\	2f\	1cc
1G	1d	1g	.
.	.	.	2b\
=5	=5	=5	=5
2C/	0c	2g\	2.cc\
2.F\	.	1f	.
.	.	.	4b\
.	.	.	2a/
4E\	.	.	.
1.C	.	2e\	2g/
.	2.c\	2.g\	1e
.	4B\	8f\L	.
.	.	8e\J	.
=6	=6	=6	=6
2D\	2A/	2d\	2f/
2E\	2G/	2B\	2.g/
2C/	1E	2c\	.
.	.	.	4f/
2G\	.	2B\	1e
2A\	1F	2A/	.
2F\	.	2B\	2d/
=7	=7	=7	=7
2.G\	1E	1c	1e
8F\L	.	.	.
8E\J	.	.	.
2D\	2F/	2d\	1r
1C	2.G/	2.e\	.
.	.	.	1g
.	4F/	4d\	.
[2G\	2E/	[2c\	.
=8	=8	=8	=8
2G\]	1D	2c\]	2a/
2F\	.	2B\	2f/
1G	1C	2.c\	2.e/
.	.	4d\	4f/
2C/	1r	2e\	2g/
[2F\	.	[2f\	[2a/
=9	=9	=9	=9
4F\]	1.c	2f\]	2a/]
8E\L	.	.	.
8D\J	.	.	.
2C/	.	2e\	2g/
2F\	.	2f\	2a/
2G\	2B\	2d\	2b\
1C	1c	1e	2g/
.	.	.	2cc\
=10	=10	=10	=10
1r	1d	1f	2b\
.	.	.	2a/
1C	1e	1.g	1cc
2G\	2d\	.	2b\
2A\	2c\	4e\	2cc\
.	.	4f\	.
=11	=11	=11	=11
2G\	2B\	2d\	2dd\
2.c\	2A/	2c\	2.ee\
.	1c	2e\	.
4B\	.	.	4dd\
2A\	.	2f\	1cc
1G	1d	1g	.
.	.	.	2b\
=12	=12	=12	=12
*^	*	*	*
00C\	00G;/	00c;	00e;	00cc;
*v	*v	*	*	*
=13	=13	=13	=13
0.r	0.r	0e	1.cc
.	.	.	2b\
.	.	1f	1a
=14	=14	=14	=14
1r	0.r	2e\	2g/
.	.	2.d\	1f
2D\	.	.	.
.	.	4c\	.
2E\	.	1c	2e/
2F\	.	.	1d
2G\	.	2B\	.
=15	=15	=15	=15
2C/	0e	1c	1c
1c	.	.	.
.	.	1r	2r
2B\	.	.	2g/
1A	1f	1c	2a/
.	.	.	2f/
=16	=16	=16	=16
2G\	2e\	2B\	4r
.	.	.	4g/
1F	1d	2.A/	2a/
.	.	.	2f/
.	.	4G/	.
2E\	1c	1G	4r
.	.	.	4g/
1D	.	.	2a/
.	2B\	2F/	2f/
=17	=17	=17	=17
2.C/	0c	1G	2.e/
4D\	.	.	4f/
2E\	.	1r	2g/
2F\	.	.	2a/
2D\	2d\	2r	2b\
[2C/	[2e\	[2g\	[2cc\
=18	=18	=18	=18
2C/]	2e\]	2g\]	4cc\]
.	.	.	4b\
2D\	4d\	2f\	1a
.	4c\	.	.
1E	1B	1e	.
.	.	.	2g#i/
[1F	[1A	1c	1a
=19	=19	=19	=19
1F]	1A]	1d	2r
.	.	.	2a/
1.E	1B	0e	2.g/
.	.	.	4a/
.	2G/	.	2b\
2C/	2c\	.	2cc\
=20	=20	=20	=20
2F\	2A/	2f\	2dd\
2E\	2B\	1g	2.ee\
1C	1c	.	.
.	.	.	4dd\
.	.	4f\	1cc
.	.	4e\	.
2r	1G	1d	.
2G\	.	.	2b\
=21	=21	=21	=21
0C	1r	2.c\	1cc
.	.	4d\	.
.	1c	1e	1r
1r	1c	1e	1cc
=22	=22	=22	=22
1.F	1A	1f	1cc
.	1c	2.f\	1a
2F\	.	.	.
.	.	8e\L	.
.	.	8d\J	.
[1F	2.A/	1c	1cc
.	4B\	.	.
=23	=23	=23	=23
2F\]	2c\	2r	1a
2D\	1d	2f\	.
1G	.	2d\	1b
.	2B\	2e\	.
1F	2c\	1f	2.a/
.	2d\	.	.
.	.	.	4b\
=24	=24	=24	=24
2C/	2e\	2g\	2cc\
2.G\	2.d\	2.g\	2.b\
4A\	4c\	4f\	4a/
2F\	2A/	2d\	1a
1E	1B	1e	.
.	.	.	2g#i/
=25	=25	=25	=25
0.AAl	0.Al	0.el	0.al
!!LO:LB:i:g=z
=26||	=26||	=26||	=26||
*>B	*>B	*>B	*>B
*clefF4	*clefGv2	*clefGv2	*clefG2
*k[]	*k[]	*k[]	*k[]
*M2/1	*M2/1	*M2/1	*M2/1
*met(C|)	*met(C|)	*met(C|)	*met(C|)
!!!OMD: Quia fecit
!!section: Quia fecit
0r	0r	0r	1.e
.	.	.	2f/
=27	=27	=27	=27
0r	0r	0r	1g
.	.	.	1a
=28	=28	=28	=28
0r	0r	1.E	1b
.	.	.	1cc
.	.	2F/	.
=29	=29	=29	=29
0r	0r	1G	2b\
.	.	.	1g
.	.	1A	.
.	.	.	4f/
.	.	.	4e/
=30	=30	=30	=30
0r	0r	1B	1d
.	.	1c	1c
=31	=31	=31	=31
0r	0r	2B\	2r
.	.	1G	2d/
.	.	.	2e/
.	.	4F/	2g/
.	.	4E/	.
=32	=32	=32	=32
0r	0r	1D	2f/
.	.	.	1a
.	.	1C	.
.	.	.	2g/
=33	=33	=33	=33
0r	0r	2r	1f
.	.	2D/	.
.	.	2E/	1e
.	.	2G/	.
=34	=34	=34	=34
0r	0r	2F/	2d/
.	.	1A	2.f/
.	.	.	4e/
.	.	2G/	[2e/
=35	=35	=35	=35
0r	0r	1F	2e/]
.	.	.	2d/
.	.	[1E	1e
=36	=36	=36	=36
0r	0r	1E]	1r
.	.	1r	1g
=37	=37	=37	=37
0r	0r	1r	1a
.	.	1G	1g
=38	=38	=38	=38
0r	0r	1A	1cc
.	.	1G	2b\
.	.	.	[2g/
=39	=39	=39	=39
0r	0r	1c	2g/]
.	.	.	4f/
.	.	.	4e/
.	.	2B\	1d
.	.	[2G/	.
=40	=40	=40	=40
0r	0r	2G/]	1e
.	.	4F/	.
.	.	4E/	.
.	.	1D	1f
=41	=41	=41	=41
0r	0r	1E	2r
.	.	.	2g/
.	.	1F	2a/
.	.	.	2cc\
=42	=42	=42	=42
0r	0r	2r	1b
.	.	2G/	.
.	.	2A/	1a
.	.	2c\	.
=43	=43	=43	=43
0r	0r	1B	2r
.	.	.	2g/
.	.	1A	2a/
.	.	.	2f/
=44	=44	=44	=44
0r	0r	2r	1g
.	.	2G/	.
.	.	2A/	2r
.	.	2F/	2a/
=45	=45	=45	=45
0r	0r	1G	2b\
.	.	.	2g/
.	.	2r	2a/
.	.	2A/	2cc\
=46	=46	=46	=46
0r	0r	2B\	1b
.	.	2G/	.
.	.	2A/	1e
.	.	2c\	.
=47	=47	=47	=47
0r	0r	4B\	2r
.	.	4A/	.
.	.	4G/	2d/
.	.	4F/	.
.	.	1E	2e/
.	.	.	2c/
=48	=48	=48	=48
0r	0r	2r	2d/
.	.	2D/	2f/
.	.	2E/	2g/
.	.	2C/	2a/
=49	=49	=49	=49
0r	0r	2D/	2b\
.	.	2E/	2cc\
.	.	2F/	2a/
.	.	2G/	[2b\
=50	=50	=50	=50
0r	0r	2A/	2b\]
.	.	2c\	1a
.	.	1B	.
.	.	.	2g#i/
=51	=51	=51	=51
0r	0r	2A/	1a
.	.	2c\	.
.	.	2d\	2f/
.	.	[2e\	[2g/
=52	=52	=52	=52
0r	0r	2e\]	2g/]
.	.	4d\	4f/
.	.	4c\	4e/
.	.	1B	1d
=53	=53	=53	=53
00r	00r	00c;	00c;
=54	=54	=54	=54
0r	0r	0r	1.cc
.	.	.	4b\
.	.	.	4a/
=55	=55	=55	=55
0r	0r	0r	2g/
.	.	.	1a
.	.	.	4g/
.	.	.	4f/
=56	=56	=56	=56
0r	0r	1.c	1e
.	.	.	2r
.	.	4B\	2d/
.	.	4A/	.
=57	=57	=57	=57
0r	0r	2G/	2e/
.	.	1A	2c/
.	.	.	2e/
.	.	4G/	2f/
.	.	4F/	.
=58	=58	=58	=58
0r	0r	1E	1g
.	.	2r	1a
.	.	2D/	.
=59	=59	=59	=59
0r	0r	2E/	1g
.	.	2C/	.
.	.	2E/	2r
.	.	2F/	2a/
=60	=60	=60	=60
0r	0r	1G	2b\
.	.	.	2g/
.	.	2r	2b\
.	.	2A/	2cc\
=61	=61	=61	=61
0r	0r	2B\	1.dd
.	.	2G/	.
.	.	2B\	.
.	.	2c\	4cc\
.	.	.	4b\
=62	=62	=62	=62
0r	0r	1.d	1a
.	.	.	2r
.	.	4c\	2dd\
.	.	4B\	.
=63	=63	=63	=63
0r	0r	1A	2cc\
.	.	.	2a/
.	.	2r	4b\
.	.	.	4a/
.	.	2d\	4g/
.	.	.	4f/
=64	=64	=64	=64
0r	0r	2c\	1e
.	.	2A/	.
.	.	4B\	1r
.	.	4A/	.
.	.	4G/	.
.	.	4F/	.
=65	=65	=65	=65
0r	0r	1E	1g
.	.	1r	1a
=66	=66	=66	=66
0r	0r	1G	2b\
.	.	.	1g
.	.	1A	.
.	.	.	2f/
=67	=67	=67	=67
0r	0r	2B\	1g
.	.	1c	.
.	.	.	1a
.	.	4B\	.
.	.	4A/	.
=68	=68	=68	=68
0r	0r	2G/	2b\
.	.	2A/	1cc
.	.	1F	.
.	.	.	4b\
.	.	.	4a/
=69	=69	=69	=69
0r	0r	2E/	1g
.	.	2e\	.
.	.	2c\	1r
.	.	[2d\	.
=70	=70	=70	=70
0r	0r	2d\]	1b
.	.	4c\	.
.	.	4B\	.
.	.	1A	1cc
=71	=71	=71	=71
0r	0r	1G	2dd\
.	.	.	1ee
.	.	2r	.
.	.	2c\	4dd\
.	.	.	4cc\
=72	=72	=72	=72
0r	0r	2d\	1b
.	.	2e\	.
.	.	1f	2a/
.	.	.	[2dd\
=73	=73	=73	=73
0r	0r	2e\	4dd\]
.	.	.	4cc\
.	.	2c\	1cc
.	.	1d	.
.	.	.	2b\
=74	=74	=74	=74
0r	0r	2r	1cc
.	.	2c\	.
.	.	2A/	1r
.	.	[2c\	.
=75	=75	=75	=75
0r	0r	4c\]	1cc
.	.	4d\	.
.	.	2e\	.
.	.	2f\	2a/
.	.	[2e\	[2cc\
=76	=76	=76	=76
0r	0r	2e\]	2cc\]
.	.	4d\	4b\
.	.	4c\	4a/
.	.	2d\	2b\
.	.	2c\	[2a/
=77	=77	=77	=77
0r	0r	2A/	2a/]
.	.	2B\	4g/
.	.	.	4f/
.	.	2.c\	2.e/
.	.	4d\	4f/
=78	=78	=78	=78
0r	0r	2.e\	2g/
.	.	.	4a/
.	.	4d\	4b\
.	.	4e\	2cc\
.	.	4c\	.
.	.	[2d\	[2b\
=79	=79	=79	=79
0r	0r	4d\]	4b\]
.	.	4c\	4a/
.	.	2A/	1a
.	.	1B	.
.	.	.	2g#i/
=80	=80	=80	=80
0r	0r	0Al	0al
!!LO:LB:i:g=z
=81||	=81||	=81||	=81||
*>C	*>C	*>C	*>C
*clefF4	*clefGv2	*clefGv2	*clefG2
*k[]	*k[]	*k[]	*k[]
*M3/1	*M3/1	*M3/1	*M3/1
*met(O)	*met(O)	*met(O)	*met(O)
!!section: Fecit potentiam
!!!OMD: Fecit potentiam
0.r	1A	0.r	2.a/
.	.	.	8g/L
.	.	.	8f/J
.	2.A/	.	2e/
.	.	.	2a/
.	8G/L	.	.
.	8F/J	.	.
.	2E/	.	2g/
.	[2A/	.	[2f/
=82	=82	=82	=82
1r	2A/]	0.r	4f/]
.	.	.	4e/
.	2G/	.	1e
1r	1F	.	.
.	.	.	2d/
1B	1E	.	2.e/
.	.	.	4f/
=83	=83	=83	=83
2.E\	0.r	2.e\	4g/
.	.	.	4c/
.	.	.	2.g/
4F\	.	8d\L	.
.	.	8c\J	.
2G\	.	2B\	.
.	.	.	4f/
2A\	.	2c\	4e/
.	.	.	8d/L
.	.	.	8c/J
2B\	.	2B\	2d/
[2c\	.	[2e\	2c/
=84	=84	=84	=84
4c\]	0.r	2e\]	1r
4B\	.	.	.
1B	.	2d\	.
.	.	1c	1e
2A\	.	.	.
1B	.	1B	2d/
.	.	.	[2g/
=85	=85	=85	=85
1r	1B	1E	2g/]
.	.	.	2g/
2.E\	1B	2r	0g
.	.	2e\	.
4F\	.	.	.
2G\	2B\	2d\	.
2C/	[2c\	2e\	.
=86	=86	=86	=86
1F	2c\]	1c	1a
.	4B\	.	.
.	4A/	.	.
2.E\	1G	2r	1.b
.	.	2e\	.
4F\	.	.	.
2G\	1r	2d\	.
2C/	.	2e\	[2cc\
=87	=87	=87	=87
1F	1A	2.c\	2cc\]
.	.	.	4b\
.	.	4d\	4a/
1E	1B	1e	1g
2.A\	[1c	1e	1r
4G\	.	.	.
=88	=88	=88	=88
2F\	2c\]	2r	1a
2D\	1d	2f\	.
1G	.	2.d\	1b
.	4c\	.	.
.	4B\	4e\	.
2.F\	1A	1f	[1cc
4G\	.	.	.
=89	=89	=89	=89
2E\	1r	2r	2cc\]
2D\	.	2f\	1dd
1G	1B	2d\	.
.	.	2e\	4cc\
.	.	.	4b\
1F	1c	[1f	1a
=90	=90	=90	=90
2r	1.d	1f]	1r
2D\	.	.	.
2G\	.	2r	1b
2E\	1e	1g	.
1A	.	.	1cc
.	4d\	2f\	.
.	4c\	.	.
=91	=91	=91	=91
2G\	2B\	0.g	2dd\
2C/	1c	.	2.ee\
1c	.	.	.
.	.	.	4dd\
.	2e\	.	1cc
1G	1d	.	.
.	.	.	2b\
=92	=92	=92	=92
00.C;	00.c;	00.e;	00.cc;
=93	=93	=93	=93
2.C/	1c	2.e\	0.r
4D\	.	4f\	.
2E\	1c	2g\	.
2F\	.	2f\	.
2G\	2B\	2e\	.
2D\	2d\	2f\	.
=94	=94	=94	=94
2E\	2c\	2g\	0.r
2F\	2A/	2a\	.
2G\	2B\	2d\	.
4F\	2c\	1a	.
4E\	.	.	.
2D\	2d\	.	.
[2d\	2B\	[2g\	.
=95	=95	=95	=95
2d\]	1A	2g\]	2cc\
2c\	.	2f\	2cc\
2d\	1G	2g\	2b\
2B\	.	2d\	2dd\
1A	2r	2e\	2cc\
.	2c\	2f\	2a/
=96	=96	=96	=96
2G\	2d\	2g\	2b\
2A\	2.c\	1f	1cc
1E	.	.	.
.	4B\	.	.
.	2G/	1e	2b\
1F	1A	.	1a
.	.	2d\	.
=97	=97	=97	=97
1E	2.B\	1e	1g
.	4c\	.	.
2D\	2d\	1r	2f/
2.C/	2.e\	.	2.g/
.	.	1r	.
4D\	4d\	.	4f/
4E\	[2c\	.	2e/
4F\	.	.	.
=98	=98	=98	=98
1G	2c\]	1g	1d
.	2B\	.	.
2r	2.c\	1e	1c
2C/	.	.	.
.	4B\	.	.
2D\	2A/	2f\	1r
2E\	2G/	[2g\	.
=99	=99	=99	=99
2C/	1c	4g\]	2r
.	.	4f\	.
1c	.	2e\	2g/
.	1G	1d	2g/
2B\	.	.	2g/
1c	1r	2.c\	2.e/
.	.	4d\	4f/
=100	=100	=100	=100
2C/	0c	2e\	2g/
2F\	.	2f\	2a/
2E\	.	1g	2g/
2C/	.	.	2.cc\
2r	1c	1e	.
.	.	.	4b\
2C/	.	.	2g/
=101	=101	=101	=101
2.F\	[0.c	2r	2a/
.	.	2f\	4g/
4E\	.	.	4f/
1C	.	1g	1e
2.c\	.	2e\	2r
.	.	2c\	2g/
4B\	.	.	.
=102	=102	=102	=102
1A	1c]	2e\	2a/
.	.	2f\	2cc\
2.G\	0d	1g	1b
8F\L	.	.	.
8E\J	.	.	.
2D\	.	2r	2r
2G\	.	2d\	2b\
=103	=103	=103	=103
2C/	1c	2e\	2cc\
2.F\	.	2f\	2.a/
.	2.A/	2r	.
4G\	.	.	4b\
1A	.	2e\	2cc\
.	4B\	.	.
.	2c\	2f\	2a/
[2G\	2d\	2g\	[2b\
=104	=104	=104	=104
4G\]	2e\	2r	4b\]
4F\	.	.	4cc\
2D\	2f\	2a\	2dd\
2E\	2e\	2.g\	2cc\
2.G\	2.d\	.	2.b\
.	.	8f\L	.
.	.	8e\J	.
.	.	1d	.
4A\	4c\	.	4a/
2F\	2A/	.	[2a/
=105	=105	=105	=105
1E	1B	1e	2a/]
.	.	.	2g#i/
0AAl	0Al	0cl	0al
!!LO:LB:i:g=z
=106||	=106||	=106||	=106||
*>D	*>D	*>D	*>D
*clefF4	*clefGv2	*clefGv2	*clefG2
*k[]	*k[]	*k[]	*k[]
*M2/1	*M2/1	*M2/1	*M2/1
*met(C|)	*met(C|)	*met(C|)	*met(C|)
!!section: Esurientes
!!!OMD: Esurientes
0r	0r	0r	0e
=107	=107	=107	=107
0r	0r	0r	1f
.	.	.	1e
=108	=108	=108	=108
0r	0e	0r	0g
=109	=109	=109	=109
0r	1f	0r	1a
.	1e	.	2g/
.	.	.	[2cc\
=110	=110	=110	=110
0r	0g	0r	2cc\]
.	.	.	4b\
.	.	.	4a/
.	.	.	1b
=111	=111	=111	=111
0r	1a	0r	2a/
.	.	.	2cc\
.	2g\	.	4b\
.	.	.	4a/
.	[2e\	.	4g/
.	.	.	4f/
=112	=112	=112	=112
0E	2e\]	0r	2g/
.	4d\	.	1a
.	4c\	.	.
.	1B	.	.
.	.	.	2g#i/
=113	=113	=113	=113
1F	4A/	0r	1a
.	4B\	.	.
.	4c\	.	.
.	4d\	.	.
1E	4e\	.	2g/
.	4f\	.	.
.	[2g\	.	[2e/
=114	=114	=114	=114
0G	2g\]	0r	2e/]
.	4f\	.	4d/
.	4e\	.	4c/
.	1d	.	1B
=115	=115	=115	=115
1.A	1c	0r	4A/
.	.	.	4B/
.	.	.	4c/
.	.	.	4d/
.	1r	.	4e/
.	.	.	4f/
2G\	.	.	[2g/
=116	=116	=116	=116
1E	1g	0r	4g/]
.	.	.	4f/
.	.	.	1e
1F	1a	.	.
.	.	.	2d/
=117	=117	=117	=117
1E	1g	0r	1e
1A	2e\	.	1r
.	[2f\	.	.
=118	=118	=118	=118
2G\	4f\]	0r	1g
.	4e\	.	.
2E\	1e	.	.
1F	.	.	1a
.	2d\	.	.
=119	=119	=119	=119
2E\	2e\	0r	1g
1E	2B\	.	.
.	2c\	.	2e/
2D\	[2d\	.	[2f/
=120	=120	=120	=120
1E	4d\]	0r	4f/]
.	4c\	.	4e/
.	2B\	.	1e
1F	2A/	.	.
.	2B\	.	2d/
=121	=121	=121	=121
1E	1G	0r	0e
2r	[1g	.	.
[2E\	.	.	.
=122	=122	=122	=122
2E\]	2g\]	0r	0r
2D\	2f\	.	.
2E\	2e\	.	.
2F\	2d\	.	.
=123	=123	=123	=123
2G\	2.e\	0r	1r
1E	.	.	.
.	4f\	.	.
.	2g\	.	2r
2D\	[2f\	.	2a/
=124	=124	=124	=124
1E	4f\]	0r	2g/
.	4e\	.	.
.	1e	.	1cc
1F	.	.	.
.	2d\	.	4b\
.	.	.	4a/
=125	=125	=125	=125
1E	1e	0r	1g
1r	1A	.	1a
=126	=126	=126	=126
1E	1r	0r	1g
2D\	1B	.	1r
2E\	.	.	.
=127	=127	=127	=127
2F\	2A/	0r	2r
2G\	2B\	.	2d/
2A\	2c\	.	4c/
.	.	.	4d/
[2E\	2B\	.	4e/
.	.	.	4f/
=128	=128	=128	=128
2E\]	2c\	0r	4g/
.	.	.	4e/
2D\	2d\	.	1a
1E	1B	.	.
.	.	.	2g/
=129	=129	=129	=129
1F	1A	0r	2a/
.	.	.	1cc
1E	1e	.	.
.	.	.	4b\
.	.	.	4a/
=130	=130	=130	=130
2r	1r	0r	2.g/
1E	.	.	.
.	.	.	4a/
.	2r	.	4b\
.	.	.	4cc\
2D\	[2B\	.	2dd\
=131	=131	=131	=131
2E\	2B\]	0r	2g/
2F\	2A/	.	2cc\
2G\	2B\	.	2b\
2A\	2c\	.	2e/
=132	=132	=132	=132
2B\	2d\	0r	2d/
1E	2e\	.	2g/
.	2c\	.	2e/
2D\	2d\	.	[2a/
=133	=133	=133	=133
1E	1B	0r	2a/]
.	.	.	2g/
1F	2A/	.	1a
.	[2c\	.	.
=134	=134	=134	=134
1E	4c\]	0r	2g/
.	4B\	.	.
.	1e	.	2e/
1r	.	.	1f
.	2d\	.	.
=135	=135	=135	=135
1E	1e	0r	1e
2D\	2r	.	1r
2E\	2B\	.	.
=136	=136	=136	=136
2F\	2A/	0r	0r
2G\	2B\	.	.
2A\	2c\	.	.
2B\	2d\	.	.
=137	=137	=137	=137
2c\	2.e\	0r	1r
1E	.	.	.
.	4f\	.	.
.	2g\	.	2r
2D\	[2f\	.	2a/
=138	=138	=138	=138
1E	4f\]	0r	2g/
.	4e\	.	.
.	1e	.	1cc
1F	.	.	.
.	2d\	.	4b\
.	.	.	4a/
=139	=139	=139	=139
1E	2e\	0r	0g
.	4d\	.	.
.	4c\	.	.
2r	1B	.	.
[2E\	.	.	.
=140	=140	=140	=140
2E\]	2r	0r	0r
2D\	1B	.	.
2E\	.	.	.
2F\	2A/	.	.
=141	=141	=141	=141
2G\	2B\	0r	1ee
2A\	2c\	.	.
2B\	2d\	.	2dd\
2c\	2e\	.	2cc\
=142	=142	=142	=142
2d\	2f\	0r	2a/
1E	1g	.	2b\
.	.	.	2cc\
2D\	2f\	.	2dd\
=143	=143	=143	=143
1E	1e	0r	2g/
.	.	.	2.cc\
1F	2c\	.	.
.	.	.	4b\
.	2d\	.	[2a/
=144	=144	=144	=144
1E	1B	0r	2a/]
.	.	.	2g#i/
1r	4A/	.	2a/
.	4B\	.	.
.	4c\	.	4e/
.	4d\	.	4f/
=145	=145	=145	=145
1E	4e\	0r	4g/
.	4f\	.	4a/
.	2g\	.	4b\
.	.	.	4cc\
2D\	2f\	.	2dd\
2E\	2e\	.	[2cc\
=146	=146	=146	=146
2F\	1d	0r	2cc\]
2G\	.	.	2b\
2A\	2c\	.	2cc\
2B\	2d\	.	4b\
.	.	.	4a/
=147	=147	=147	=147
2c\	2e\	0r	2g/
2d\	2f\	.	2f/
2e\	1g	.	2.e/
[2E\	.	.	.
.	.	.	4f/
=148	=148	=148	=148
2E\]	2e\	0r	2g/
2D\	1f	.	2a/
1E	.	.	2g/
.	[2e\	.	[2cc\
=149	=149	=149	=149
1F	2e\]	0r	2cc\]
.	2d\	.	4b\
.	.	.	4a/
1E	1e	.	1g
=150	=150	=150	=150
2A\	2c\	0r	2a/
1G	1d	.	1b
[2C/	[2e\	.	[2cc\
=151	=151	=151	=151
2C/]	2e\]	0r	2cc\]
2D\	4d\	.	1a
.	4c\	.	.
1E	1B	.	.
.	.	.	2g#i/
=152	=152	=152	=152
0el	0Al	0r	0al
==	==	==	==
*-	*-	*-	*-
!!!RDF**kern: l=long note in original notation
!!!RDF**kern: i=editorial accidental
!!!ENC:	Joel Chapman 2012/1/17
!!!END:	2012/01/17/
!!!EED:	Jesse Rodin
!!!EEV:	2013/10/25/
!!attribution-level@Jos: 3 (tricky)
!!!ONB:	Translated from MusicXML and edited on 2012/02/02/ by Craig Sapp
!!muse2ps: u^(2) @{OTL2} (3) @{OTL3} (4) @{OTL4}^C^@{COA}?\n@{SCT}^i2I150v95,95,95,150Q16
